lib/preview/nrk-logo-preview-nrk-stor-oslo-with-bg.svg

<svg width="123" height="24" viewBox="0 0 123 24" fill="none" xmlns="http://www.w3.org/2000/svg">
<rect width="123" height="24" fill="#1767CE"/>
<path d="M6 17.9975V5.99856H10V17.9975H6ZM15.2438 7.90825L17.5081 17.9975H13.1992L10.4955 5.99856H12.9122C13.4663 5.99137 14.0041 6.18672 14.4245 6.54786C14.8456 6.89386 15.0849 7.37417 15.2438 7.90825ZM18 17.9975V5.99856H22V17.9975H18ZM25.0105 10.5616C24.5862 10.5657 24.1687 10.4547 23.8025 10.2404C23.4412 10.0316 23.1411 9.73143 22.9323 9.37007C22.7178 9.0038 22.6068 8.58624 22.611 8.16179C22.6061 7.73994 22.7172 7.32485 22.9323 6.9619C23.1433 6.60446 23.4431 6.30757 23.8025 6.09999C24.1689 5.88598 24.5862 5.77499 25.0105 5.77886C25.4322 5.77432 25.8471 5.8854 26.2102 6.09999C26.566 6.30939 26.8626 6.60604 27.072 6.9619C27.2868 7.32496 27.3979 7.73997 27.3933 8.16179C27.3973 8.5862 27.2863 9.0037 27.072 9.37007C26.8649 9.72985 26.5679 10.0298 26.2102 10.2404C25.8471 10.4554 25.4324 10.5666 25.0105 10.5616ZM28 17.9975V5.99856H32V17.9975H28ZM36.9737 12.5557C36.9848 12.5673 37.0693 12.7054 37.2272 12.9697C37.3851 13.2341 37.5906 13.5722 37.8439 13.9838C38.0974 14.3952 38.3649 14.8317 38.6463 15.2935C38.9278 15.7552 39.1926 16.1918 39.4408 16.6032C39.6881 17.0147 39.9697 17.4794 40.2857 17.9975H35.9598C35.6893 17.5581 35.4441 17.1609 35.2245 16.806C35.0048 16.4511 34.7713 16.0681 34.5238 15.6568C34.2758 15.246 34.0306 14.846 33.7882 14.4569C33.5458 14.0679 33.3375 13.7271 33.1633 13.4345C32.9883 13.1418 32.8671 12.9446 32.7997 12.843C32.6325 12.5909 32.5336 12.2998 32.5127 11.998C32.5294 11.7084 32.6226 11.4284 32.7828 11.1866C32.8503 11.0739 32.9743 10.8739 33.1545 10.5866C33.3348 10.2993 33.546 9.95853 33.7882 9.5642C34.0304 9.16987 34.2756 8.76708 34.5238 8.35585C34.772 7.94462 35.0055 7.55871 35.2245 7.19818C35.4445 6.83803 35.6897 6.43806 35.9598 5.99829H40.2857L36.9396 11.457C36.8361 11.619 36.7777 11.8058 36.7706 11.998C36.7818 12.1998 36.8528 12.3938 36.9737 12.5557Z" fill="white"/>
<g clip-path="url(#clip0_5919_2927)">
<path d="M52.4928 13.2853C52.6229 13.6474 52.688 14.0773 52.688 14.5751C52.688 15.254 52.572 15.8225 52.3401 16.2807C52.1081 16.739 51.78 17.1095 51.3557 17.3923C50.9314 17.6752 50.4393 17.8789 49.8792 18.0033C49.3192 18.1278 48.7167 18.19 48.0718 18.19C47.8002 18.19 47.5315 18.1787 47.2656 18.1561C46.9998 18.1334 46.7339 18.1023 46.468 18.0627C46.2021 18.0231 45.9277 17.9665 45.6449 17.893C45.362 17.8195 45.0679 17.7261 44.7624 17.613L44.5417 15.9328C44.8133 16.0346 45.099 16.1336 45.3988 16.2298C45.6986 16.326 46.0069 16.408 46.3237 16.4759C46.6405 16.5438 46.9573 16.5975 47.2741 16.6371C47.5909 16.6767 47.8964 16.6965 48.1906 16.6965C48.5413 16.6965 48.8553 16.6739 49.1325 16.6286C49.4097 16.5834 49.6558 16.5098 49.8707 16.408C50.0857 16.3062 50.2667 16.1704 50.4138 16.0007C50.5609 15.831 50.674 15.633 50.7532 15.4067C50.8324 15.1804 50.872 14.9202 50.872 14.626C50.872 14.3319 50.8296 14.0999 50.7448 13.8963C50.6599 13.6926 50.5439 13.5229 50.3968 13.3871C50.2498 13.2514 50.0716 13.1326 49.8622 13.0307C49.6529 12.9289 49.4182 12.8412 49.1579 12.7677C48.8977 12.6941 48.6149 12.6234 48.3094 12.5555C47.936 12.4763 47.5711 12.3802 47.2147 12.267C46.8583 12.1539 46.5274 12.0181 46.2219 11.8597C45.9164 11.7013 45.6449 11.5033 45.4073 11.2657C45.1697 11.0281 44.9858 10.7424 44.8557 10.4087C44.7256 10.0749 44.6605 9.67607 44.6605 9.21219C44.6605 8.62385 44.7652 8.11472 44.9745 7.68478C45.1838 7.25484 45.4837 6.89844 45.874 6.61559C46.2643 6.33273 46.7254 6.12342 47.2572 5.98765C47.7889 5.85188 48.3829 5.78399 49.0391 5.78399C49.3333 5.78399 49.6218 5.79814 49.9047 5.82642C50.1875 5.85471 50.4647 5.89714 50.7363 5.95371C51.0078 6.01028 51.2765 6.07816 51.5424 6.15736C51.8083 6.23656 52.06 6.33839 52.2976 6.46284L52.06 7.95632C51.8564 7.84318 51.6329 7.74418 51.3897 7.65932C51.1464 7.57446 50.8947 7.50375 50.6344 7.44718C50.3742 7.39061 50.1083 7.34818 49.8368 7.31989C49.5652 7.29161 49.2994 7.27747 49.0391 7.27747C48.7223 7.27747 48.431 7.29727 48.1651 7.33687C47.8992 7.37647 47.6645 7.44435 47.4608 7.54052C47.2572 7.63669 47.079 7.75549 46.9262 7.89692C46.7735 8.03835 46.6603 8.21089 46.5868 8.41454C46.5132 8.6182 46.4765 8.85014 46.4765 9.11036C46.4765 9.37059 46.5132 9.59405 46.5868 9.78073C46.6603 9.96741 46.7706 10.1258 46.9177 10.2559C47.0648 10.386 47.2374 10.4992 47.4354 10.5954C47.6334 10.6915 47.8596 10.7736 48.1142 10.8414C48.3688 10.9093 48.6431 10.9772 48.9373 11.0451C49.322 11.1243 49.6954 11.2205 50.0574 11.3336C50.4195 11.4467 50.7617 11.5853 51.0842 11.7494C51.4066 11.9135 51.6895 12.1199 51.9327 12.3689C52.176 12.6178 52.3627 12.9232 52.4928 13.2853ZM59.0098 16.6371C58.9136 16.6541 58.8174 16.6711 58.7213 16.688C58.6251 16.705 58.5317 16.7163 58.4412 16.722C58.3507 16.7276 58.2659 16.7305 58.1867 16.7305C57.8925 16.7305 57.6407 16.6796 57.4314 16.5777C57.2221 16.4759 57.0609 16.326 56.9478 16.128C56.8346 15.93 56.778 15.6896 56.778 15.4067V10.7057H59.171L59.3577 9.34796H56.778V6.6665L55.047 7.27747V9.34796H53.7402L53.5535 10.7057H55.047V15.7631C55.047 16.1478 55.0979 16.4787 55.1997 16.7559C55.3015 17.0331 55.4345 17.2622 55.5985 17.4433C55.7626 17.6243 55.9549 17.7657 56.1756 17.8675C56.3962 17.9694 56.631 18.0429 56.8799 18.0882C57.1288 18.1334 57.372 18.1561 57.6096 18.1561C57.7907 18.1561 57.9689 18.1504 58.1442 18.1391C58.3196 18.1278 58.4808 18.1108 58.6279 18.0882C58.775 18.0655 58.9136 18.0401 59.0437 18.0118C59.1738 17.9835 59.2841 17.9581 59.3746 17.9354L59.4765 16.5268C59.4199 16.5494 59.352 16.5692 59.2728 16.5862C59.1936 16.6032 59.1059 16.6202 59.0098 16.6371ZM68.6749 11.2403C69.0256 11.9021 69.201 12.68 69.201 13.5738C69.201 14.5129 69.0115 15.3275 68.6325 16.0177C68.2535 16.7078 67.7245 17.2396 67.0457 17.613C66.3668 17.9863 65.5861 18.173 64.7036 18.173C63.8211 18.173 63.1083 17.9977 62.4634 17.6469C61.8185 17.2962 61.3235 16.7842 60.9784 16.111C60.6333 15.4378 60.4608 14.6373 60.4608 13.7096C60.4608 12.7818 60.6447 11.9785 61.0124 11.2997C61.3801 10.6208 61.8949 10.0947 62.5568 9.72133C63.2186 9.34796 63.9908 9.16128 64.8733 9.16128C65.7558 9.16128 66.5224 9.34231 67.173 9.70436C67.8235 10.0664 68.3242 10.5784 68.6749 11.2403ZM67.4021 13.6078C67.4021 13.1439 67.3511 12.7224 67.2493 12.3434C67.1475 11.9644 66.9919 11.6391 66.7826 11.3675C66.5733 11.096 66.3131 10.8895 66.0019 10.7481C65.6908 10.6067 65.3203 10.536 64.8903 10.536C64.3472 10.536 63.8805 10.6491 63.4902 10.8754C63.0998 11.1017 62.7972 11.4411 62.5822 11.8937C62.3672 12.3462 62.2598 12.9176 62.2598 13.6078C62.2598 14.2979 62.3672 14.8976 62.5822 15.3728C62.7972 15.848 63.0914 16.2044 63.4647 16.442C63.8381 16.6796 64.2793 16.7984 64.7885 16.7984C65.2976 16.7984 65.7502 16.6824 66.1462 16.4504C66.5422 16.2185 66.8505 15.8649 67.0711 15.3897C67.2917 14.9145 67.4021 14.3205 67.4021 13.6078ZM74.8525 9.28856C74.5357 9.37342 74.2358 9.50353 73.953 9.6789C73.6701 9.85427 73.4042 10.0664 73.1553 10.3153C73.1157 10.3549 73.0761 10.4002 73.0365 10.4426V9.17825L71.3055 9.43282V18.0033H73.0365V11.591C73.1666 11.5005 73.2996 11.4156 73.4354 11.3421C73.6107 11.2459 73.7861 11.1639 73.9615 11.096C74.1368 11.0281 74.315 10.9687 74.4961 10.9178C74.6771 10.8669 74.8666 10.8301 75.0646 10.8075C75.2626 10.7849 75.4691 10.7792 75.684 10.7905L75.8877 9.19522C75.5143 9.17259 75.1693 9.20371 74.8525 9.28856ZM76.3968 13.8793H81.1997L81.3185 12.4876H76.5156L76.3968 13.8793ZM94.3185 9.43282C94.5787 10.1909 94.7088 11.0338 94.7088 11.9615C94.7088 12.8893 94.5731 13.7831 94.3015 14.5412C94.03 15.2992 93.6397 15.9498 93.1305 16.4929C92.6214 17.036 92.0076 17.4546 91.2891 17.7487C90.5707 18.0429 89.7589 18.19 88.8538 18.19C87.9486 18.19 87.1595 18.0514 86.4523 17.7742C85.7452 17.497 85.1427 17.0925 84.6449 16.5608C84.1471 16.029 83.768 15.3869 83.5078 14.6345C83.2476 13.8821 83.1175 13.0364 83.1175 12.0973C83.1175 11.1582 83.2504 10.3012 83.5163 9.52616C83.7822 8.75114 84.1669 8.08643 84.6703 7.53204C85.1738 6.97764 85.7876 6.5477 86.5117 6.24222C87.2358 5.93673 88.0561 5.78399 88.9726 5.78399C89.889 5.78399 90.6838 5.93108 91.391 6.22525C92.0981 6.51942 92.6978 6.93804 93.1899 7.48112C93.6821 8.0242 94.0583 8.67477 94.3185 9.43282ZM92.876 11.9785C92.876 11.0394 92.7204 10.2163 92.4092 9.50919C92.0981 8.80205 91.654 8.25331 91.077 7.86298C90.5 7.47264 89.7985 7.27747 88.9726 7.27747C88.1466 7.27747 87.3999 7.48395 86.8002 7.89692C86.2006 8.30989 85.7395 8.87842 85.4171 9.60253C85.0946 10.3266 84.9334 11.1582 84.9334 12.0973C84.9334 12.7988 85.0211 13.4324 85.1964 13.9981C85.3718 14.5638 85.632 15.0475 85.9771 15.4491C86.3222 15.8508 86.7352 16.1591 87.216 16.3741C87.6969 16.589 88.2485 16.6965 88.8707 16.6965C89.493 16.6965 90.087 16.5806 90.5848 16.3486C91.0827 16.1167 91.5013 15.7942 91.8407 15.3813C92.1801 14.9683 92.4375 14.4733 92.6129 13.8963C92.7883 13.3192 92.876 12.68 92.876 11.9785ZM102.227 14.0999C102.057 13.9189 101.859 13.7633 101.633 13.6332C101.407 13.5031 101.169 13.3928 100.92 13.3023C100.739 13.2457 100.561 13.1863 100.386 13.1241C100.21 13.0618 100.035 13.0053 99.8596 12.9544C99.6843 12.9034 99.5145 12.8497 99.3505 12.7931C99.1864 12.7366 99.0365 12.6743 98.9008 12.6064C98.7537 12.5272 98.6207 12.4424 98.5019 12.3519C98.3831 12.2614 98.287 12.1539 98.2134 12.0294C98.1399 11.905 98.1031 11.7635 98.1031 11.6051C98.1031 11.4241 98.1427 11.2685 98.2219 11.1384C98.3011 11.0083 98.4199 10.898 98.5783 10.8075C98.7367 10.717 98.9262 10.6491 99.1468 10.6038C99.3675 10.5586 99.6192 10.536 99.9021 10.536C100.027 10.536 100.162 10.5416 100.309 10.5529C100.456 10.5642 100.618 10.584 100.793 10.6123C100.968 10.6406 101.144 10.6774 101.319 10.7226C101.495 10.7679 101.673 10.8188 101.854 10.8754C102.035 10.9319 102.199 10.9942 102.346 11.0621L102.465 9.68739C102.25 9.59687 102.038 9.51768 101.828 9.44979C101.619 9.38191 101.407 9.32533 101.192 9.28008C100.977 9.23482 100.765 9.20371 100.555 9.18674C100.346 9.16976 100.14 9.16128 99.936 9.16128C99.4269 9.16128 98.963 9.21502 98.5444 9.32251C98.1257 9.42999 97.7608 9.58839 97.4497 9.7977C97.1386 10.007 96.8981 10.2729 96.7284 10.5954C96.5587 10.9178 96.4739 11.2997 96.4739 11.7409C96.4739 12.0577 96.5191 12.3377 96.6096 12.581C96.7001 12.8242 96.8189 13.0307 96.966 13.2004C97.1131 13.3702 97.2857 13.5201 97.4837 13.6502C97.6816 13.7803 97.8938 13.8906 98.1201 13.9811C98.2445 14.0264 98.3746 14.0716 98.5104 14.1169C98.6462 14.1621 98.7791 14.2046 98.9092 14.2442C99.0394 14.2838 99.1666 14.3234 99.2911 14.363C99.4156 14.4026 99.5372 14.4422 99.656 14.4818C99.7748 14.5214 99.8907 14.5581 100.004 14.5921C100.162 14.6487 100.309 14.7137 100.445 14.7873C100.581 14.8608 100.697 14.94 100.793 15.0249C100.889 15.1097 100.963 15.2087 101.014 15.3219C101.065 15.435 101.09 15.5595 101.09 15.6952C101.09 15.9781 100.997 16.2015 100.81 16.3656C100.623 16.5296 100.38 16.6456 100.08 16.7135C99.7804 16.7814 99.4608 16.8153 99.1214 16.8153C98.9404 16.8153 98.7395 16.8012 98.5189 16.7729C98.2983 16.7446 98.0663 16.705 97.8231 16.6541C97.5798 16.6032 97.3309 16.541 97.0763 16.4674C96.8218 16.3939 96.5644 16.3118 96.3042 16.2213L96.372 17.6639C96.6662 17.7657 96.9349 17.8477 97.1782 17.91C97.4214 17.9722 97.6534 18.0259 97.874 18.0712C98.0946 18.1165 98.3096 18.1447 98.5189 18.1561C98.7282 18.1674 98.9404 18.173 99.1553 18.173C99.6531 18.173 100.123 18.1249 100.564 18.0288C101.005 17.9326 101.39 17.7827 101.718 17.579C102.046 17.3754 102.303 17.1095 102.49 16.7814C102.677 16.4533 102.77 16.0629 102.77 15.6104C102.77 15.2709 102.722 14.9796 102.626 14.7363C102.53 14.4931 102.397 14.2809 102.227 14.0999ZM107.497 16.7559C107.446 16.7616 107.386 16.7644 107.319 16.7644C107.171 16.7644 107.047 16.7418 106.945 16.6965C106.843 16.6513 106.758 16.5806 106.691 16.4844C106.623 16.3882 106.575 16.2666 106.546 16.1195C106.518 15.9724 106.504 15.797 106.504 15.5934V5.19L104.773 5.44457V16.3571C104.773 16.6852 104.818 16.9652 104.909 17.1972C104.999 17.4291 105.129 17.6186 105.299 17.7657C105.469 17.9128 105.669 18.0175 105.901 18.0797C106.133 18.1419 106.385 18.173 106.657 18.173C106.792 18.173 106.923 18.1674 107.047 18.1561C107.171 18.1447 107.293 18.1278 107.412 18.1051C107.531 18.0825 107.63 18.0599 107.709 18.0373L107.879 16.6965C107.811 16.7078 107.743 16.7192 107.675 16.7305C107.607 16.7418 107.548 16.7503 107.497 16.7559ZM117.705 13.5738C117.705 14.5129 117.515 15.3275 117.136 16.0177C116.757 16.7078 116.228 17.2396 115.55 17.613C114.871 17.9863 114.09 18.173 113.208 18.173C112.325 18.173 111.612 17.9977 110.967 17.6469C110.322 17.2962 109.827 16.7842 109.482 16.111C109.137 15.4378 108.965 14.6373 108.965 13.7096C108.965 12.7818 109.149 11.9785 109.516 11.2997C109.884 10.6208 110.399 10.0947 111.061 9.72133C111.723 9.34796 112.495 9.16128 113.377 9.16128C114.26 9.16128 115.026 9.34231 115.677 9.70436C116.327 10.0664 116.828 10.5784 117.179 11.2403C117.53 11.9021 117.705 12.68 117.705 13.5738ZM115.906 13.6078C115.906 13.1439 115.855 12.7224 115.753 12.3434C115.651 11.9644 115.496 11.6391 115.287 11.3675C115.077 11.096 114.817 10.8895 114.506 10.7481C114.195 10.6067 113.824 10.536 113.394 10.536C112.851 10.536 112.384 10.6491 111.994 10.8754C111.604 11.1017 111.301 11.4411 111.086 11.8937C110.871 12.3462 110.764 12.9176 110.764 13.6078C110.764 14.2979 110.871 14.8976 111.086 15.3728C111.301 15.848 111.595 16.2044 111.969 16.442C112.342 16.6796 112.783 16.7984 113.292 16.7984C113.802 16.7984 114.254 16.6824 114.65 16.4504C115.046 16.2185 115.354 15.8649 115.575 15.3897C115.796 14.9145 115.906 14.3205 115.906 13.6078Z" fill="#D4EEFC"/>
</g>
<defs>
<clipPath id="clip0_5919_2927">
<rect width="74" height="14" fill="white" transform="translate(44 5)"/>
</clipPath>
</defs>
</svg>

<svg xmlns="http://www.w3.org/2000/svg" viewBox="0 0 123 24"><path fill="#1767CE" d="M0 0h123v24H0z"/><path fill="#fff" d="M6 17.997V6h4v11.998H6Zm9.244-10.089 2.264 10.09H13.2l-2.704-12h2.417a2.276 2.276 0 0 1 1.512.55c.422.346.66.826.82 1.36ZM18 17.998v-12h4v12h-4Zm7.01-7.436a2.381 2.381 0 0 1-2.078-1.192 2.345 2.345 0 0 1-.321-1.208 2.301 2.301 0 0 1 .321-1.2A2.41 2.41 0 0 1 26.21 6.1c.356.21.653.506.862.862.215.363.326.778.321 1.2a2.35 2.35 0 0 1-.321 1.208c-.207.36-.504.66-.862.87a2.3 2.3 0 0 1-1.2.322ZM28 17.997V6h4v11.998h-4Zm8.974-5.441c.01.011.095.15.253.414s.364.602.617 1.014a309.436 309.436 0 0 1 1.597 2.62c.247.41.529.875.845 1.393H35.96c-.27-.439-.516-.836-.736-1.191-.22-.355-.453-.738-.7-1.15-.248-.41-.493-.81-.736-1.2a60.12 60.12 0 0 1-.625-1.021 18.04 18.04 0 0 0-.363-.592 1.747 1.747 0 0 1-.287-.845c.016-.29.11-.57.27-.811.067-.113.191-.313.371-.6a182.106 182.106 0 0 0 1.37-2.23l.7-1.159.736-1.2h4.326l-3.346 5.459a1.079 1.079 0 0 0-.17.541c.012.202.083.396.204.558Z"/><g clip-path="url(#a)"><path fill="#D4EEFC" d="M52.493 13.285c.13.362.195.792.195 1.29 0 .679-.116 1.248-.348 1.706-.232.458-.56.829-.984 1.111a4.324 4.324 0 0 1-1.477.611 8.32 8.32 0 0 1-1.807.187c-.272 0-.54-.011-.806-.034a12.819 12.819 0 0 1-.798-.093 7.905 7.905 0 0 1-.823-.17 9.243 9.243 0 0 1-.883-.28l-.22-1.68c.271.102.557.2.857.297.3.096.608.178.925.246.317.068.633.122.95.161.317.04.622.06.917.06.35 0 .664-.023.941-.068.278-.046.524-.12.739-.221.215-.102.396-.238.543-.407.147-.17.26-.368.34-.594.078-.227.118-.487.118-.781 0-.294-.042-.526-.127-.73a1.43 1.43 0 0 0-.348-.509 2.202 2.202 0 0 0-.535-.356 4.25 4.25 0 0 0-.704-.263c-.26-.074-.543-.145-.849-.213-.373-.079-.738-.175-1.094-.288a6.278 6.278 0 0 1-.993-.407 3.277 3.277 0 0 1-.815-.594 2.457 2.457 0 0 1-.551-.857c-.13-.334-.196-.733-.196-1.197 0-.588.105-1.097.315-1.527.209-.43.509-.787.899-1.07.39-.282.851-.492 1.383-.627a7.208 7.208 0 0 1 1.782-.204c.294 0 .583.014.866.042.282.029.56.071.831.128.272.056.54.124.806.203.266.08.518.181.756.306l-.238 1.493a4.282 4.282 0 0 0-.67-.297 6.45 6.45 0 0 0-.756-.212 7.7 7.7 0 0 0-1.595-.17c-.317 0-.608.02-.874.06-.266.04-.5.107-.704.204a2.102 2.102 0 0 0-.535.356 1.291 1.291 0 0 0-.34.518 2.04 2.04 0 0 0-.11.695c0 .26.037.484.11.67.074.187.185.346.332.476.147.13.32.243.517.34.198.095.425.178.68.245.254.068.528.136.822.204.385.08.758.175 1.12.289.362.113.705.251 1.027.415.323.165.605.37.849.62.243.249.43.554.56.916Zm6.517 3.352-.289.051c-.096.017-.19.028-.28.034-.09.006-.175.008-.254.008-.294 0-.546-.05-.756-.152a1.095 1.095 0 0 1-.483-.45 1.432 1.432 0 0 1-.17-.721v-4.701h2.393l.187-1.358h-2.58V6.666l-1.731.611v2.071H53.74l-.187 1.358h1.494v5.057c0 .385.05.716.153.993.101.277.234.506.398.687.165.181.357.323.578.424.22.102.455.176.704.221.249.045.492.068.73.068.18 0 .359-.006.534-.017a5.546 5.546 0 0 0 .9-.127c.13-.029.24-.054.33-.077l.102-1.408a1.278 1.278 0 0 1-.203.06c-.08.016-.167.033-.263.05Zm9.665-5.397c.35.662.526 1.44.526 2.334 0 .939-.19 1.754-.569 2.444a3.953 3.953 0 0 1-1.586 1.595c-.68.373-1.46.56-2.342.56-.883 0-1.596-.175-2.24-.526a3.542 3.542 0 0 1-1.486-1.536c-.345-.673-.517-1.474-.517-2.401 0-.928.184-1.732.551-2.41a3.913 3.913 0 0 1 1.545-1.579c.662-.373 1.434-.56 2.316-.56.883 0 1.65.181 2.3.543.65.362 1.151.874 1.502 1.536Zm-1.273 2.368c0-.464-.05-.886-.153-1.265a2.745 2.745 0 0 0-.466-.976 2.034 2.034 0 0 0-.781-.619c-.311-.141-.682-.212-1.112-.212-.543 0-1.01.113-1.4.34-.39.226-.693.565-.908 1.018-.215.452-.322 1.024-.322 1.714s.107 1.29.322 1.765c.215.475.51.831.883 1.069s.814.356 1.323.356c.51 0 .962-.116 1.358-.348.396-.232.704-.585.925-1.06.22-.476.331-1.07.331-1.782Zm7.45-4.32a3.337 3.337 0 0 0-.899.39 4.425 4.425 0 0 0-.798.637c-.04.04-.079.085-.118.128V9.178l-1.732.255v8.57h1.731v-6.412a4.228 4.228 0 0 1 .925-.495c.176-.068.354-.127.535-.178a3.609 3.609 0 0 1 1.188-.127l.204-1.596a3.23 3.23 0 0 0-1.035.094Zm1.545 4.591H81.2l.118-1.391h-4.802l-.12 1.391Zm17.921-4.446c.26.758.39 1.6.39 2.528 0 .928-.135 1.822-.406 2.58a5.55 5.55 0 0 1-1.172 1.952 5.176 5.176 0 0 1-1.84 1.256c-.72.294-1.531.441-2.436.441s-1.695-.139-2.402-.416a4.878 4.878 0 0 1-1.807-1.213 5.322 5.322 0 0 1-1.137-1.927c-.26-.752-.39-1.598-.39-2.537 0-.939.132-1.796.398-2.57.266-.776.65-1.44 1.154-1.995a5.16 5.16 0 0 1 1.842-1.29c.724-.305 1.544-.458 2.46-.458.917 0 1.712.147 2.419.441a4.965 4.965 0 0 1 1.799 1.256 5.548 5.548 0 0 1 1.129 1.952Zm-1.442 2.546c0-.94-.156-1.763-.467-2.47-.31-.707-.755-1.256-1.332-1.646-.577-.39-1.278-.586-2.104-.586-.826 0-1.573.207-2.173.62-.6.413-1.06.981-1.383 1.706-.322.724-.484 1.555-.484 2.494 0 .702.088 1.335.263 1.901.176.566.436 1.05.781 1.451.345.402.758.71 1.239.925.48.215 1.033.323 1.655.323.622 0 1.216-.116 1.714-.348a3.533 3.533 0 0 0 1.256-.968 4.26 4.26 0 0 0 .772-1.485 6.577 6.577 0 0 0 .263-1.918Zm9.351 2.12a2.563 2.563 0 0 0-.594-.466 4.525 4.525 0 0 0-.713-.33 14.65 14.65 0 0 1-.534-.179 9.562 9.562 0 0 0-.526-.17 10.863 10.863 0 0 1-.51-.16 3.69 3.69 0 0 1-.45-.188 3.018 3.018 0 0 1-.398-.254 1.118 1.118 0 0 1-.289-.323.818.818 0 0 1-.11-.424.88.88 0 0 1 .119-.467c.08-.13.198-.24.356-.33a1.92 1.92 0 0 1 .569-.204c.22-.045.472-.068.755-.068a5.322 5.322 0 0 1 .891.076c.175.029.351.065.526.11.176.046.354.097.535.153.181.057.345.12.492.187l.119-1.375a7.921 7.921 0 0 0-.637-.237 6.174 6.174 0 0 0-.636-.17 5.072 5.072 0 0 0-.637-.093 7.636 7.636 0 0 0-.619-.026c-.51 0-.973.054-1.392.162a3.505 3.505 0 0 0-1.094.475c-.311.209-.552.475-.722.797-.17.323-.254.705-.254 1.146 0 .317.045.597.136.84a2 2 0 0 0 .356.62c.147.17.32.32.518.45s.41.24.636.33a15.19 15.19 0 0 0 .79.263 31.49 31.49 0 0 1 .746.238c.119.04.235.076.348.11.158.057.305.122.441.195.136.074.252.153.348.238a.87.87 0 0 1 .297.67c0 .283-.093.506-.28.67a1.63 1.63 0 0 1-.73.349c-.3.067-.62.101-.959.101a4.77 4.77 0 0 1-.602-.042 8.987 8.987 0 0 1-.696-.119c-.243-.05-.492-.113-.747-.187a15.133 15.133 0 0 1-.772-.246l.068 1.443c.294.102.563.184.806.246.243.062.475.116.696.161.22.045.436.074.645.085.21.011.421.017.636.017.498 0 .968-.048 1.409-.144a3.642 3.642 0 0 0 1.154-.45c.328-.204.585-.47.772-.798.187-.328.28-.718.28-1.17 0-.34-.048-.631-.144-.875a1.982 1.982 0 0 0-.399-.636Zm5.27 2.657a1.634 1.634 0 0 1-.178.008.917.917 0 0 1-.374-.067.604.604 0 0 1-.254-.213.94.94 0 0 1-.145-.365 2.854 2.854 0 0 1-.042-.526V5.19l-1.731.255v10.912c0 .328.045.608.136.84a1.41 1.41 0 0 0 .992.883c.232.062.484.093.756.093a3.812 3.812 0 0 0 1.052-.136l.17-1.34c-.068.01-.136.022-.204.034-.068.01-.127.02-.178.025Zm10.208-3.182c0 .939-.19 1.754-.569 2.444a3.956 3.956 0 0 1-1.586 1.595c-.679.373-1.46.56-2.342.56-.883 0-1.596-.175-2.241-.526a3.541 3.541 0 0 1-1.485-1.536c-.345-.673-.517-1.474-.517-2.401 0-.928.184-1.732.551-2.41a3.916 3.916 0 0 1 1.545-1.579c.662-.373 1.434-.56 2.316-.56.883 0 1.649.181 2.3.543.65.362 1.151.874 1.502 1.536s.526 1.44.526 2.334Zm-1.799.034c0-.464-.051-.886-.153-1.265a2.753 2.753 0 0 0-.466-.976 2.042 2.042 0 0 0-.781-.619c-.311-.141-.682-.212-1.112-.212-.543 0-1.01.113-1.4.34-.39.226-.693.565-.908 1.018-.215.452-.322 1.024-.322 1.714s.107 1.29.322 1.765c.215.475.509.831.883 1.069.373.238.814.356 1.323.356.51 0 .962-.116 1.358-.348.396-.232.704-.585.925-1.06.221-.476.331-1.07.331-1.782Z"/></g><defs><clipPath id="a"><path fill="#fff" d="M44 5h74v14H44z"/></clipPath></defs></svg>
